X: 1547
T: Olmuşum Divane
C: Kömürcüzâde Hâfız Mehmed Ef.
O: Turkey
F: http://compmusic.upf.edu/node/140
N: mahur--sarki--aksak--olmusum_divane--komurcuzade_hafiz_mehmet_efendi
N: makam= mahur
N: form= sarki
N: usul= aksak = 9/8
M: 9/8
L: 1/16
K: C ^9/8f   
Q: 1/4=120
%%MIDI tuningsystem comma53
g3f e2f2 g4 a6 | g3fg2 a2g2 f2e6  | f2ef g2fe d4 c'4 ba | 
w:   |   |   | 
g3fe2 f2g4a6  | g3f g2a2 g2f2 e6 | f2 efg2 fed4g4fe  | 
w:   |   |   | 
d2a4g=f feed edcB c2 | z2 d4 g=ffe edd2 c2B2  | 
w:   |   | 
B2AB dcBA G4 g4 fe | d2 a4 g=ffe eded cBc2  | 
w:   |   | 
z2d4g=f feed d2c2 B2 | B2 ABdc BAG4a6  | \
w:   |   | 
a3g f2g2 a4 _7/8b6 | 
w:   | 
_7/8b^c' baa3gg3ff6  | f2ef g2fe d4 a6 | \
w:   |   | 
a3gf2 g2a4_7/8b6  | 
w:   | 
_7/8b^c'ba a3g g3f f6 | f2 efg2 fed4g4fe  | \
w:   |   | 
d2a4g=f feed edcB c2 | 
w:   | 
z2 d4 g=ffe edd2 c2B2  | B2AB dcBA G4 g4 fe | 
w:   |   | 
d2 a4 g=ffe eded cBc2  | z2d4g=f feed d2c2 B2 | 
w:   |   | 
B2 ABdc BAG4G4z2  | |


